!!!ONB: MCCC : ILB0172_01 : Extracted Monophonic Melody
!!!COM: Beethoven, Ludwig van
!!!OPR: Piano Sonata No.11
!!!OMV: 1
!!!SCT: Op.22
!!!ODT: 1799///
**kern
*thru
*staff1
*>A
*clefG2
*k[b-e-]
*B-:
*M4/4
*MM132
4d
=1
4f
4d
4r
4d
=2
4f
4d
4r
4d
=3
4f
4b-
4dd
4ff
=4
2.bb-
16aa
16bb-
16ccc
16bb-
=5
8aa
8gg
8ff
8ee-
8dd
8cc
8gg
8ff
=6
4ee-
4dd
4r
16a
16b-
16cc
16b-
=7
8a-
8g
8f
8e-
8d
8c
8e-
8A
=8
8B-
16d
16c
16B-
16A
16B-
16G
8F
16g
16f
16e-
16d
16e-
16c
=9
8B-
16dd
16cc
16b-
16a
16b-
16g
8f
16gg
16ff
16ee-
16dd
16ee-
16cc
=10
8b-
16cc
16dd
16ee-
16ff
16gg
16aa
16bb-
16aa
16bb-
16ccc
16ddd
16ccc
16ddd
16eee
=11
4fff
4f
2r
=12
1r
=13
2r
[2ff
=14
2ff]
4ee-
4dd[
=15
4dd]
2cc
4b
=16
16cc
16g
16cc
16g
16cc
16g
16dd
16g
16ee
16b-
16cc
16b-
16dd
16b-
16ee
16b-
=17
16ff
16a
16ff
16a
16ff
16a
16ee
16a
16dd
16a-
16cc
16a-
16b
16a-
16dd
16a-
=18
16cc
16g
16b
16g
16cc
16g
16dd
16g
16ee
16b-
16cc
16b-
16dd
16b-
16ee
16b-
=19
16ff
16a
16ff
16a
16ff
16a
16ee
16a
16dd
16a-
16cc
16a-
16b
16a-
16dd
16a-
=20
16cc
16g
16cc
16g
16b
16a-
16dd
16a-
16cc
16g
16cc
16g
16b
16a-
16dd
16a-
=21
16cc
16c
16d
16e
16f
16g
16a
16b
16cc
16b
16cc
16b
16cc
16b
16cc
16b
=22
2cc
4a
4ff
=23
4cc
4aa
4cc
4ccc
=24
2cc
4a
4ff
=25
4cc
4aa
4cc
4ccc
=26
2ff
2r
=27
4r
4ff#
4aa
[4ccc
=28
4ccc]
[4bb-
4bb-_
4bb-_
=29
4bb-]
4aa
4gg
4ee
=30
4ff
4r
2a
=31
4f
4d
4.b-
8a
=32
4g
4e
2cc
=33
4a
4f
4.dd
8cc
=34
4b-
4g
4.gg
8ff
=35
4.ee
8dd
4cc
4b-
=36
4a
4g
4f
4d
=37
1r
=38
2r
8r
4a
8a
=39
8r
8f
8r
8d
8r
4b-
8a
=40
8r
8g
8r
8e
8r
4cc
8cc
=41
8r
8a
8r
8f
8r
4dd
8cc
=42
8r
8b-
8r
8g
8r
4gg
8ff
=43
8r
4ee
8dd
8r
8cc
8r
8b-
=44
16a
16A
16c#
16e
16a
16cc#
16ee
16gg#
16aa
16gg#
16aa
16gg#
16aa
16ee
16cc#
16a
=45
16r
16A
16d
16f
16a
16dd
16ff
16gg#
16aa
16gg#
16aa
16gg#
16aa
16ff
16dd
16a
=46
16r
16A-
16B
16d
16f
16a-
16b
16dd
16ff
16dd
16aa-
16ff
16dd
16b
16a-
16f
=47
16r
16e
16g
16b-
16dd-
16ee
16gg
16bb-
16ddd-
16eee
16ee
16eee
16ee
16eee
16ee
16eee
=48
16ff
16fff
16ee
16eee
16ff
16fff
16b-
16bb-
16a
16aa
16ee
16eee
16ff
16fff
16b-
16bb-
=49
16a
16aa
16ee
16eee
16ff
16fff
16b-
16bb-
16a
16aa
16ee
16eee
16ff
16fff
16b-
16bb-
=50
16a
16aa
16g
16gg
16f
16ff
16e
16ee
16d
16dd
16c
16cc
16B-
16b-
16A
16a
=51
16G
16g
16F
16f
16E
16e
16D
16d
2r
=52
1r
=53
1r
=54
16E-
16f
16E#
16f#
16G
16g
16A
16a
16B-
16b-
16c
16cc
16d
16dd
16c
16cc
=55
16B-
16b-
16A
16a
16G
16g
16F
16f
16E
16e
16D
16d
16C
16c
16E
16e
=56
4f
4r
2c
=57
2d-
4c
4c
=58
4.c
8r
4.a
8f
=59
4.b-
8a-
8g-
8f
8g-
8e
=60
4.f
8r
8g
8f
8g
8e
=61
4.f
8r
8g-
8f
8g-
8e
=62
4.f
8g
4.a
8b-
=63
4.cc
8dd
8ee
8ff
8gg
8aa
=64
4.bb-
8aa
4.gg
8ff
=65
4.ee
8dd
8cc
8b-
8a
8g
=66
4f
16e
16d#
16e
16c
4f
16ee
16dd#
16ee
16cc
=67
4ff
4r
4eee
4r
=68
4fff
4r
4r
*>A
*M4/4
4d
=69
4f
4d
4r
4d
=70
4f
4d
4r
4d
=71
4f
4b-
4dd
4ff
=72
2.bb-
16aa
16bb-
16ccc
16bb-
=73
8aa
8gg
8ff
8ee-
8dd
8cc
8gg
8ff
=74
4ee-
4dd
4r
16a
16b-
16cc
16b-
=75
8a-
8g
8f
8e-
8d
8c
8e-
8A
=76
8B-
16d
16c
16B-
16A
16B-
16G
8F
16g
16f
16e-
16d
16e-
16c
=77
8B-
16dd
16cc
16b-
16a
16b-
16g
8f
16gg
16ff
16ee-
16dd
16ee-
16cc
=78
8b-
16cc
16dd
16ee-
16ff
16gg
16aa
16bb-
16aa
16bb-
16ccc
16ddd
16ccc
16ddd
16eee
=79
4fff
4f
2r
=80
1r
=81
2r
[2ff
=82
2ff]
4ee-
4dd[
=83
4dd]
2cc
4b
=84
16cc
16g
16cc
16g
16cc
16g
16dd
16g
16ee
16b-
16cc
16b-
16dd
16b-
16ee
16b-
=85
16ff
16a
16ff
16a
16ff
16a
16ee
16a
16dd
16a-
16cc
16a-
16b
16a-
16dd
16a-
=86
16cc
16g
16b
16g
16cc
16g
16dd
16g
16ee
16b-
16cc
16b-
16dd
16b-
16ee
16b-
=87
16ff
16a
16ff
16a
16ff
16a
16ee
16a
16dd
16a-
16cc
16a-
16b
16a-
16dd
16a-
=88
16cc
16g
16cc
16g
16b
16a-
16dd
16a-
16cc
16g
16cc
16g
16b
16a-
16dd
16a-
=89
16cc
16c
16d
16e
16f
16g
16a
16b
16cc
16b
16cc
16b
16cc
16b
16cc
16b
=90
2cc
4a
4ff
=91
4cc
4aa
4cc
4ccc
=92
2cc
4a
4ff
=93
4cc
4aa
4cc
4ccc
=94
2ff
2r
=95
4r
4ff#
4aa
[4ccc
=96
4ccc]
[4bb-
4bb-_
4bb-_
=97
4bb-]
4aa
4gg
4ee
=98
4ff
4r
2a
=99
4f
4d
4.b-
8a
=100
4g
4e
2cc
=101
4a
4f
4.dd
8cc
=102
4b-
4g
4.gg
8ff
=103
4.ee
8dd
4cc
4b-
=104
4a
4g
4f
4d
=105
1r
=106
2r
8r
4a
8a
=107
8r
8f
8r
8d
8r
4b-
8a
=108
8r
8g
8r
8e
8r
4cc
8cc
=109
8r
8a
8r
8f
8r
4dd
8cc
=110
8r
8b-
8r
8g
8r
4gg
8ff
=111
8r
4ee
8dd
8r
8cc
8r
8b-
=112
16a
16A
16c#
16e
16a
16cc#
16ee
16gg#
16aa
16gg#
16aa
16gg#
16aa
16ee
16cc#
16a
=113
16r
16A
16d
16f
16a
16dd
16ff
16gg#
16aa
16gg#
16aa
16gg#
16aa
16ff
16dd
16a
=114
16r
16A-
16B
16d
16f
16a-
16b
16dd
16ff
16dd
16aa-
16ff
16dd
16b
16a-
16f
=115
16r
16e
16g
16b-
16dd-
16ee
16gg
16bb-
16ddd-
16eee
16ee
16eee
16ee
16eee
16ee
16eee
=116
16ff
16fff
16ee
16eee
16ff
16fff
16b-
16bb-
16a
16aa
16ee
16eee
16ff
16fff
16b-
16bb-
=117
16a
16aa
16ee
16eee
16ff
16fff
16b-
16bb-
16a
16aa
16ee
16eee
16ff
16fff
16b-
16bb-
=118
16a
16aa
16g
16gg
16f
16ff
16e
16ee
16d
16dd
16c
16cc
16B-
16b-
16A
16a
=119
16G
16g
16F
16f
16E
16e
16D
16d
2r
=120
1r
=121
1r
=122
16E-
16f
16E#
16f#
16G
16g
16A
16a
16B-
16b-
16c
16cc
16d
16dd
16c
16cc
=123
16B-
16b-
16A
16a
16G
16g
16F
16f
16E
16e
16D
16d
16C
16c
16E
16e
=124
4f
4r
2c
=125
2d-
4c
4c
=126
4.c
8r
4.a
8f
=127
4.b-
8a-
8g-
8f
8g-
8e
=128
4.f
8r
8g
8f
8g
8e
=129
4.f
8r
8g-
8f
8g-
8e
=130
4.f
8g
4.a
8b-
=131
4.cc
8dd
8ee
8ff
8gg
8aa
=132
4.bb-
8aa
4.gg
8ff
=133
4.ee
8dd
8cc
8b-
8a
8g
=134
4f
16e
16d#
16e
16c
4f
16ee
16dd#
16ee
16cc
=135
4ff
4r
4eee
4r
=136
4fff
4r
4r
*>B
16c
16B
16c
16A
=137
4f
4r
4r
16c
16B
16c
16A
=138
4f
4r
4r
16c
16B
16c
16A
=139
4.f
8g
4.a
8b-
=140
4.cc
8dd
8ee-
8dd
8cc
8dd
=141
4.ee-
8dd
8cc
8b-
8a
8b-
=142
4.cc
8b-
8a
8g
8f#
8e
=143
2d
4.f#
8d
=144
4.g
8f
8e-
8d
8e-
8c#
=145
4.d
8r
4.ff#
8dd
=146
4.gg
8ff
8ee-
8dd
8ee-
8cc#
=147
4.dd
8r
8ee
8dd
8ee
8cc#
=148
4.dd
8r
8ee-
8dd
8ee-
8cc#
=149
4dd
4r
2r
=150
4r
8ee-
8dd
8cc
8b-
8a
8g
=151
4f#
16aa
16gg#
16aa
16ff#
16ccc
16bb
16ccc
16aa
16eee-
16ddd
16ccc
16bb-
=152
16aa
16bb-
16ccc
16bb-
16aa
16gg
16ff#
16gg
16aa
16gg
16ff#
16ee-
16dd
16cc
16b
16cc
=153
4b
4r
2r
=154
4r
8aa-
8gg
8ff
8ee-
8dd
8cc
=155
4b
16dd
16cc#
16dd
16b
16ff
16ee
16ff
16dd
16aa-
16gg
16ff
16ee-
=156
16dd
16ee-
16ff
16ee-
16dd
16cc
16b
16cc
16dd
16cc
16b
16a-
16g
16f
16e
16f
=157
4e
4r
2r
=158
4r
8dd-
8cc
8b-
8a-
8g
8f
=159
4e
16gg
16ff#
16gg
16ee
16bb-
16aa
16bb-
16gg
16ddd-
16ccc
16ddd-
16ccc
=160
16ddd-
16bb-
16gg
16ee
16bb-
16gg
16ee
16dd-
16gg
16ee
16dd-
16b-
16ee
16dd-
16b-
16g
=161
4r
16ff
16ee
16ff
16cc
16aa-
16gg
16aa-
16ff
16ccc
16bb
16ccc
16aa-
=162
16fff
16ccc
16aa-
16ff
16ccc
16aa-
16ff
16cc
16aa-
16ff
16cc
16a-
16ff
16cc
16a-
16f
=163
4r
16ff
16ee
16ff
16dd
16bb
16aa#
16bb
16ff
16ddd
16ccc#
16ddd
16bb
=164
16fff
16ddd
16bb
16ff
16ddd
16bb
16ff
16dd
16bb
16ff
16dd
16b
16ff
16dd
16b
16f
=165
4r
16ee-
16dd
16ee-
16cc
16gg
16ff#
16gg
16ee-
16ccc
16bb
16ccc
16gg
=166
16eee-
16ccc
16aa
16ee-
16ccc
16aa
16ee-
16cc
16aa
16ee-
16cc
16a
16ee-
16cc
16a
16e-
=167
4r
16ee-
16dd
16ee-
16cc
16aa
16gg#
16aa
16ee-
16ccc
16bb
16ccc
16aa
=168
16eee-
16ccc
16aa
16ee-
16ccc
16aa
16ee-
16cc
16aa
16ee-
16cc
16a
16ee-
16cc
16a
16e-
=169
4r
16dd-
16cc
16dd-
16b-
16ff
16ee
16ff
16dd-
16bb-
16aa
16bb-
16ff
=170
16ddd-
16bb-
16gg
16dd-
16bb-
16gg
16dd-
16b-
16gg
16dd-
16b-
16g
16dd-
16b-
16g
16d-
=171
4r
16dd-
16cc
16dd-
16b-
16gg
16ff#
16gg
16dd-
16bb-
16aa
16bb-
16gg
=172
16ddd-
16bb-
16gg
16dd-
16bb-
16gg
16dd-
16b-
16gg
16dd-
16b-
16g
16dd-
16b-
16g
16d-
=173
16b-
16g
16d-
16B-
16g
16d-
16B-
16G
16e-
16d-
16B-
16G
16e-
16d-
16B-
16G
=174
16e-
16d-
16B-
16G
16e-
16d-
16B-
16G
16e-
16d-
16B-
16G
16e-
16d-
16B-
16G
=175
16e-
16d-
16B-
16G
16e-
16d-
16B-
16G
16e-
16d-
16B-
16G
16e-
16d-
16B-
16G
=176
16e-
16d-
16B-
16G
16e-
16d-
16B-
16G
16e-
16d-
16B-
16G
16e-
16d-
16B-
16G
=177
16e
16d-
16B-
16G
16e
16d-
16B-
16G
16e
16d-
16B-
16G
16e
16d-
16B-
16G
=178
16e
16d-
16B-
16G
16e
16d-
16B-
16G
16e
16d-
16B-
16G
16e
16d-
16B-
16G
=179
16e
16d-
16B-
16G
16e
16d-
16B-
16G
16e
16d-
16B-
16G
16e
16d-
16B-
16G
=180
16e
16d-
16B-
16G
16e
16d-
16B-
16G
16e
16c
16B-
16G
16e
16c
16B-
16G
=181
16e-
16c
16A
16G-
16e-
16c
16A
16G-
16e-
16c
16A
16G-
16e-
16c
16A
16G-
=182
16e-
16c
16A
16G-
16e-
16c
16A
16G-
16e-
16c
16A
16G-
16e-
16c
16A
16G-
=183
16e-
16c
16A
16G-
16e-
16c
16A
16G-
16e-
16c
16A
16G-
16e-
16c
16A
16G-
=184
16e-
16c
16A
16G-
16e-
16c
16A
16G-
16e-
16c
16A
16F
16e-
16c
16A
16F
=185
16e-
16c
16A
16F
16e-
16c
16A
16F
16e-
16c
16A
16F
16e-
16c
16A
16F
=186
16e-
16c
16A
16F
16e-
16c
16A
16F
16e-
16c
16A
16F
16e-
16c
16A
16F
=187
16e-
16c
16A
16F
16e-
16c
16A
16F
16e-
16c
16A
16F
16e-
16c
16A
16F
=188
16e-
16c
16A
16F
16e-
16c
16A
16F
16e-
16c
16A
16F
16e-
16c
16A
16F
=189
16e-
16c
16A
16F
16e-
16c
16A
16F
16e-
16c
16A
16F
16e-
16c
16A
16F
=190
16e-
16c
16A
16F
16e-
16c
16A
16F
16e-
16c
16A
16F
16e-
16c
16A
16F
=191
16e-
16c
16A
16F
16e-
16c
16A
16F
16e-
16c
16A
16F
16e-
16c
16A
16F
=192
1r
=193
8e-
8e
8f
8g
8a
8b-
8cc
8dd
=194
1ee-[
=195
2.ee-]
4d
=196
4f
4d
4r
4d
=197
4f
4d
4r
4d
=198
4f
4b-
4dd
4ff
=199
2.bb-
16aa
16bb-
16ccc
16bb-
=200
8aa
8gg
8ff
8ee-
8dd
8cc
8gg
8ff
=201
4ee-
4dd
4r
16a
16b-
16cc
16b-
=202
8a-
8g
8f
8e-
8d
8c
8e-
8A
=203
8B-
16d
16c
16B-
16A
16B-
16G
8F
16g
16f
16e-
16d
16e-
16c
=204
8B-
16dd
16cc
16b-
16a
16b-
16g
8f
16gg
16ff
16ee-
16dd
16ee-
16cc
=205
8b-
16cc
16dd
16ee-
16ff
16gg
16aa
16bb-
16aa
16bb-
16ccc
16ddd
16ccc
16ddd
16eee
=206
4fff
4f
2r
=207
4r
4f
4dd
4b-
=208
4r
4f
4dd
4b-
=209
1r
=210
2r
[2aa-
=211
4aa-]
4gg[
4gg]
4ff[
=212
4ff]
4ee-[
4ee-]
4dd[
=213
4dd]
4cc[
4cc]
4b-[
=214
4b-]
4a
4b-
4d
=215
8c
16f
16c
16f
16c
16g
16c
16a
16e-
16f
16e-
16g
16e-
16a
16e-
=216
16b-
16d-
16b-
16d-
16b-
16d-
16a-
16d-
16g
16d-
16f
16d-
16e
16d-
16g
16d-
=217
8f
16ff
16cc
16ff
16cc
16gg
16cc
16aa
16ee-
16ff
16ee-
16gg
16ee-
16aa
16ee-
=218
16bb-
16dd-
16bb-
16dd-
16bb-
16dd-
16aa-
16dd-
16gg
16dd-
16ff
16dd-
16ee
16dd-
16gg
16dd-
=219
16ff
16cc
16ff
16cc
16ee
16dd-
16gg
16dd-
16ff
16cc
16ff
16cc
16ee
16dd-
16gg
16dd-
=220
16ff
16f
16g
16a
16b-
16cc
16dd
16ee
16ff
16ee
16ff
16ee
16ff
16ee
16ff
16ee
=221
2ff
4dd
4bb-
=222
4ff
4ddd
4ff
4fff
=223
2ff
4dd
4bb-
=224
4ff
4ddd
4ff
4fff
=225
2bb
2r
=226
4r
4bb
4ddd
[4fff
=227
4fff]
[4eee-
2eee-_
=228
4eee-]
4ddd
4ccc
4aa
=229
4bb-
4r
2dd
=230
4b-
4g
4.ee-
8dd
=231
4cc
4a
2ff
=232
4dd
4b-
4.gg
8ff
=233
4ee-
4cc
4.ccc
8bb-
=234
4.aa
8gg
4ff
4ee-
=235
4dd
4cc
4b-
4g
=236
4r
4f
4r
4f
=237
4r
4d
8r
4dd
8dd
=238
8r
8b-
8r
8g
8r
4ee-
8dd
=239
8r
8cc
8r
8a
8r
4ff
8ff
=240
8r
8dd
8r
8b-
8r
4gg
8ff
=241
8r
8ee-
8r
8cc
8r
4ccc
8bb-
=242
8r
4aa
8gg
8r
8ff
8r
8ee-
=243
16dd
16d
16f#
16a
16dd
16ff#
16aa
16ccc#
16ddd
16ccc#
16ddd
16ccc#
16ddd
16aa
16ff#
16dd
=244
16r
16d
16g
16b-
16dd
16gg
16bb-
16ccc#
16ddd
16ccc#
16ddd
16ccc#
16ddd
16bb-
16gg
16dd
=245
16r
16d-
16e
16g
16b-
16dd-
16ee
16gg
16bb-
16gg
16ddd-
16bb-
16gg
16ee
16dd-
16b-
=246
16r
16A
16c
16e-
16g-
16a
16cc
16ee-
16gg-
16aa
16a
16aa
16a
16aa
16a
16aa
=247
16b-
16bb-
16a
16aa
16b-
16bb-
16e-
16ee-
16d
16dd
16a
16aa
16b-
16bb-
16e-
16ee-
=248
16d
16dd
16a
16aa
16b-
16bb-
16e-
16ee-
16d
16dd
16a
16aa
16b-
16bb-
16e-
16ee-
=249
16d
16dd
16a
16aa
16b-
16bb-
16a
16aa
16g
16gg
16f
16ff
16e-
16ee-
16d
16dd
=250
16c
16cc
16B-
16b-
16A
16a
16G
16g
16F
16f
16E-
16e-
16D
16d
16C
16c
=251
8B-
16A
16F
16B-
16F
16e-
16F
16d
16F
16A
16F
16B-
16F
16e-
16F
=252
16d
16F
16A
16F
16B-
16F
16e-
16F
8d
16F#
16f#
16G
16g
16A
16a
=253
16B-
16b-
16B
16b
16c
16cc
16d
16dd
16e-
16ee-
16f
16ff
16g
16gg
16f
16ff
=254
16e-
16ee-
16d
16dd
16c
16cc
16B-
16b-
16A
16a
16G
16g
16F
16f
16A
16a
=255
4b-
4r
2f
=256
2g-
4g-
4g-
=257
4.f
8r
4.dd
8b-
=258
4.ee-
8dd-
8cc-
8b-
8cc-
8a
=259
4.b-
8r
8cc
8b-
8cc
8a
=260
4.b-
8r
8cc-
8b-
8cc-
8a
=261
4.b-
8cc
4.dd
8ee-
=262
4.ff
8gg
8aa
8bb-
8ccc
8ddd
=263
4.eee-
8ddd
4.ccc
8bb-
=264
4.aa
8gg
8ff
8ee-
8dd
8cc
=265
4b-
16a
16g#
16a
16f
4b-
16aa
16gg#
16aa
16ff
=266
4bb-
4r
4aa
4r
=267
4bb-
4r
4r
==
*-
